X:57
T:Polska ur Petter Dufvas notbok (Ma6-57)
R:Polska
O:Verkelbäck, Småland
B:Petter Dufvas notbok
S:Petter Dufva
N:Smus Ma6 bild 57
M:3/4
L:1/8
K:D
Acdf dD | GBEGFD | Acegfd | gbegfA | dfcedF | ^GB A4 :|:
Ac ea/2^g/2 aA | fd=gfdB | b/2a/2g/2f/2 edcB | F2 B4 | 
AcdA G/2B/2A/2G/2 | EFGE B/2A/2G/2F/2 | GBEGFd | FF/2E/2 D4 :|

